X:645
T:Hurlock's Reel
C:Joe Buchanan's Scottish Tome - Page 194.2
I:194 2
Z:Carl Allison
R:Reel
L:1/8
M:4/4
K:A
(AB) | "A"cBcA E2 (AB) | "A"cBce f2 "D"(ef) | "D"agaf "A"efAB | "A"c2 "E"B2 B2 (AB) |
"A"cBcA E2 (AB) | "A"cBce f2 "D"(ef) | "F#m"agaf "E7"efAB | "A"c2 A2 A2 :|
(ce) | "A"fece aece | "A"fecA E2 (AB) | "A"cAcA "E7"EFAB | "A"c2 "E7"B2 B2 (eg) |
"A"fece aece | "A"fecA E2 (AB) | "A"cBcA "E7"EFAB | "A"c2 A2 A2 "E7"(eg) |
"A"fece aece | "A"fecA E2 (AB) | "A"cBcA "E7"EFAB | "A"c2 "E"B2 B2 (FA) |
"A"cBcA E2 (AB) | "A"cBce "D"f2 (ef) | "F#m"agaf "E7"efAB | "A"c2 A2 A2 |]
W:Errata: In last measures, moved "E" or "E7" chord to first B note in measure, added "E" chord
W:in last measure, fifth line.

